; generated by PrusaSlicer 2.8.0 on 2024-08-12 at 17:57:08 UTC


;
;
; 

; external perimeters extrusion width = 0.90mm
; perimeters extrusion width = 0.90mm
; infill extrusion width = 0.90mm
; solid infill extrusion width = 0.90mm
; top infill extrusion width = 0.80mm
; first layer extrusion width = 0.90mm

M73 P0 R72
M73 Q0 S72
M201 X1000 Y1000 Z200 E5000 ; sets maximum accelerations, mm/sec^2
M203 X200 Y200 Z12 E120 ; sets maximum feedrates, mm / sec
M204 S1250 T1250 ; sets acceleration (S) and retract acceleration (R), mm/sec^2
M205 X8.00 Y8.00 Z0.40 E4.50 ; sets the jerk limits, mm/sec
M205 S0 T0 ; sets the minimum extruding and travel feed rate, mm/sec

; printing object 444.stl id:0 copy 0
; stop printing object 444.stl id:0 copy 0

;TYPE:Custom
M862.3 P "MK3S" ; printer model check
M862.1 P0.8 ; nozzle diameter check
M115 U3.13.3 ; tell printer latest fw version
G90 ; use absolute coordinates
M83 ; extruder relative mode
M104 S220 ; set extruder temp
M140 S100 ; set bed temp
M190 S100 ; wait for bed temp
M109 S220 ; wait for extruder temp
G28 W ; home all without mesh bed level
G80 X62.3261 Y50.6061 W125.929 H108.8 ; mesh bed levelling

G1 Z0.2 F720
G1 Y-3 F1000 ; go outside print area
G92 E0
G1 X60 E9 F1000 ; intro line
G1 X100 E12.5 F1000 ; intro line

G92 E0
M221 S95
G21 ; set units to millimeters
G90 ; use absolute coordinates
M83 ; use relative distances for extrusion
M900 K0.01 ; Filament gcode LA 1.5
; ; Filament gcode LA 1.0

M107
;LAYER_CHANGE
;Z:0.3
;HEIGHT:0.3
G1 E-.7 F2100
G1 Z.55 F720
G1 X65.506 Y74.452 F10800
G1 Z.3 F720
G1 E.7 F1200
M204 S800
;TYPE:Skirt/Brim
;WIDTH:0.9
G1 X66.558 Y73.759 E.13129
G1 X67.529 Y73.323 E.11093
G1 X68.361 Y73.065 E.09079
G1 X165.327 Y51.096 E10.36223
G1 X166.789 Y51.057 E.15243
M73 P0 R71
G1 X167.495 Y51.114 E.07382
G1 X168.514 Y51.357 E.10918
G1 X170.019 Y52.054 E.17286
G1 X171.464 Y53.178 E.1908
G1 X172.749 Y54.62 E.2013
G1 X173.642 Y55.853 E.15867
G1 X174.974 Y57.922 E.25646
G1 X185.058 Y74.728 E2.04269
G1 X185.802 Y76.143 E.16662
G1 X186.302 Y77.311 E.13242
G1 X187.164 Y80.315 E.32572
G1 X187.444 Y81.856 E.16324
G1 X187.651 Y83.592 E.18221
G1 X187.797 Y85.978 E.24914
G1 X187.837 Y117.035 E3.23686
G1 X187.703 Y119.296 E.23606
G1 X187.449 Y120.622 E.14071
G1 X186.886 Y122.165 E.17119
G1 X186.114 Y123.466 E.15767
G1 X168.055 Y147.011 E3.09262
G1 X167.14 Y148.042 E.14367
G1 X166.273 Y148.764 E.11759
G1 X165.427 Y149.307 E.10477
G1 X164.116 Y149.93 E.15128
G1 X162.67 Y150.424 E.15926
G1 X153.72 Y152.961 E.96955
G1 X148.292 Y154.387 E.58492
G1 X142.651 Y155.722 E.60416
G1 X136.917 Y156.892 E.60993
G1 X133.057 Y157.553 E.40816
G1 X129.244 Y158.092 E.40135
G1 X123.465 Y158.655 E.60516
G1 X118.322 Y158.922 E.53674
G1 X115.05 Y158.988 E.34109
G1 X111.842 Y158.953 E.33437
G1 X108.579 Y158.808 E.34042
G1 X105.49 Y158.561 E.32297
G1 X102.461 Y158.205 E.31786
G1 X99.49 Y157.74 E.31342
G1 X96.578 Y157.162 E.30942
G1 X93.722 Y156.47 E.30627
G1 X90.924 Y155.662 E.30353
G1 X88.182 Y154.738 E.30157
G1 X85.497 Y153.695 E.30021
G1 X82.87 Y152.534 E.29934
G1 X80.3 Y151.255 E.29919
G1 X77.787 Y149.857 E.29971
G1 X75.33 Y148.341 E.3009
G1 X72.929 Y146.707 E.30269
G1 X70.584 Y144.957 E.30496
G1 X68.291 Y143.092 E.30805
G1 X66.096 Y141.156 E.30504
G1 X65.413 Y140.452 E.10223
G1 X64.75 Y139.601 E.11243
G1 X64.185 Y138.676 E.11297
G1 X63.739 Y137.724 E.10957
G1 X63.325 Y136.502 E.13447
G1 X63.116 Y135.62 E.09447
G1 X62.875 Y133.934 E.17751
G1 X62.744 Y130.493 E.35889
G1 X62.883 Y79.748 E5.28882
G1 X63.105 Y78.217 E.16123
G1 X63.456 Y77.159 E.11618
G1 X63.732 Y76.583 E.06657
G1 X64.508 Y75.429 E.14494
G1 X65.421 Y74.536 E.1331
M204 S1000
;WIPE_START
G1 F8640
G1 X65.506 Y74.452 E-.02759
G1 X66.558 Y73.759 E-.29088
G1 X67.529 Y73.323 E-.24577
G1 X68.09 Y73.149 E-.13576
;WIPE_END
G1 Z.55 F720
; printing object 444.stl id:0 copy 0
G1 X165.414 Y122.041 F10800
G1 Z.3 F720
G1 E.7 F1200
M204 S800
;TYPE:Perimeter
;WIDTH:0.899999
G1 X165.314 Y122.128 E.01381
G1 X165.103 Y122.496 E.04421
G1 X165.027 Y122.913 E.04418
G1 X164.838 Y140.461 E1.82901
G1 X164.851 Y141.188 E.07578
G1 X164.831 Y141.792 E.06299
G1 X164.756 Y142.446 E.06861
M73 Q0 S71
G1 X164.648 Y142.94 E.0527
G1 X164.479 Y143.426 E.05363
G1 X164.134 Y144.061 E.07532
G1 X163.822 Y144.43 E.05036
G1 X163.267 Y144.875 E.07414
G1 X162.802 Y145.147 E.05615
G1 X162.247 Y145.396 E.0634
G1 X161.288 Y145.719 E.10547
G1 X158.974 Y146.362 E.25031
G1 X154.147 Y147.754 E.52359
G1 X148.881 Y149.176 E.5685
G1 X145.271 Y150.081 E.38789
G1 X143.45 Y150.513 E.19506
G1 X139.76 Y151.33 E.3939
G1 X136.041 Y152.067 E.39514
G1 X134.183 Y152.399 E.19671
G1 X132.322 Y152.705 E.19656
G1 X130.463 Y152.983 E.19591
G1 X128.609 Y153.23 E.19494
G1 X126.762 Y153.444 E.19379
G1 X124.925 Y153.624 E.19237
G1 X123.104 Y153.765 E.19036
G1 X118.103 Y154.023 E.52191
G1 X114.976 Y154.085 E.32597
G1 X111.923 Y154.05 E.31821
G1 X108.941 Y153.918 E.3111
G1 X106.03 Y153.687 E.30435
G1 X103.187 Y153.356 E.29831
G1 X100.41 Y152.923 E.29292
G1 X97.697 Y152.388 E.2882
G1 X95.045 Y151.749 E.28431
G1 X92.454 Y151.004 E.28098
G1 X89.92 Y150.153 E.2786
G1 X87.443 Y149.194 E.27683
G1 X85.019 Y148.127 E.27603
G1 X82.649 Y146.95 E.27579
G1 X80.328 Y145.663 E.2766
G1 X78.056 Y144.265 E.27803
G1 X75.831 Y142.755 E.28026
G1 X73.65 Y141.131 E.2834
G1 X71.512 Y139.395 E.28703
G1 X69.392 Y137.524 E.2947
G1 X69.041 Y137.151 E.05338
G1 X68.728 Y136.733 E.05443
G1 X68.464 Y136.279 E.05474
G1 X68.247 Y135.792 E.05557
G1 X68.075 Y135.275 E.05679
G1 X67.941 Y134.727 E.0588
G1 X67.839 Y134.143 E.06179
G1 X67.765 Y133.52 E.06539
G1 X67.678 Y132.133 E.14484
G1 X67.652 Y130.495 E.17074
G1 X67.71 Y123.686 E.70968
G1 X67.747 Y84.439 E4.09044
G1 X67.771 Y80.396 E.42138
G1 X67.822 Y79.633 E.0797
G1 X67.949 Y79.155 E.05155
G1 X68.214 Y78.644 E.05999
G1 X68.488 Y78.348 E.04204
G1 X68.81 Y78.117 E.0413
G1 X69.291 Y77.905 E.05478
G1 X69.867 Y77.754 E.06206
G1 X70.724 Y77.649 E.08999
G1 X71.734 Y77.602 E.10538
G1 X72.983 Y77.589 E.13018
G1 X77.454 Y77.626 E.466
G1 X79.566 Y77.578 E.22018
G1 X81.655 Y77.503 E.21786
G1 X83.731 Y77.402 E.21662
G1 X87.808 Y77.129 E.42587
G1 X91.708 Y76.782 E.40808
G1 X95.524 Y76.367 E.40006
G1 X99.174 Y75.908 E.38341
G1 X102.679 Y75.419 E.36884
G1 X106.037 Y74.914 E.35392
G1 X116.411 Y73.265 E1.09478
G1 X120.622 Y72.56 E.44499
G1 X123.562 Y72.034 E.31128
G1 X126.625 Y71.446 E.32506
G1 X129.781 Y70.793 E.33589
G1 X133.038 Y70.062 E.3479
G1 X136.386 Y69.246 E.35915
G1 X139.827 Y68.333 E.37104
G1 X144.047 Y67.101 E.45818
G1 X145.138 Y66.763 E.11904
G1 X146.879 Y66.106 E.19394
G1 X148.591 Y65.43 E.19184
G1 X150.169 Y64.777 E.17799
G1 X151.639 Y64.139 E.16702
G1 X152.989 Y63.526 E.15453
G1 X154.282 Y62.91 E.14927
G1 X155.476 Y62.315 E.13904
G1 X157.593 Y61.19 E.24986
G1 X158.556 Y60.646 E.11527
G1 X160.277 Y59.618 E.20893
G1 X161.793 Y58.66 E.18691
G1 X164.428 Y56.938 E.32807
G1 X165.756 Y56.113 E.16294
G1 X166.272 Y55.935 E.05689
G1 X166.885 Y55.984 E.06409
G1 X167.381 Y56.19 E.05598
G1 X167.673 Y56.389 E.03683
G1 X168.151 Y56.794 E.0653
G1 X168.5 Y57.168 E.05331
G1 X168.85 Y57.593 E.05738
G1 X169.204 Y58.064 E.06141
G1 X169.967 Y59.178 E.14073
G1 X171.235 Y61.207 E.24937
G1 X176.381 Y69.855 E1.04882
G1 X179.909 Y75.656 E.70763
G1 X180.775 Y77.118 E.1771
M73 Q1 S71
G1 X181.395 Y78.294 E.13856
G1 X181.698 Y79.001 E.08017
G1 X181.944 Y79.728 E.07999
G1 X182.207 Y80.659 E.10083
G1 X182.361 Y81.302 E.06891
M73 P1 R71
G1 X182.49 Y81.948 E.06866
G1 X182.692 Y83.311 E.14361
G1 X182.823 Y84.723 E.14779
G1 X182.918 Y86.924 E.22961
G1 X182.931 Y89.258 E.24326
G1 X182.871 Y94.252 E.52053
G1 X182.856 Y98.865 E.48078
G1 X182.871 Y106.711 E.81774
G1 X182.856 Y110.481 E.39292
G1 X182.93 Y115.981 E.57328
G1 X182.934 Y116.936 E.09953
G1 X182.913 Y117.796 E.08966
G1 X182.855 Y118.559 E.07975
G1 X182.74 Y119.25 E.07301
G1 X182.538 Y119.893 E.07024
G1 X182.205 Y120.483 E.07061
G1 X181.725 Y120.97 E.07127
G1 X181.144 Y121.304 E.06985
G1 X180.521 Y121.501 E.0681
G1 X179.867 Y121.608 E.06907
G1 X179.162 Y121.658 E.07366
G1 X178.381 Y121.676 E.08142
G1 X166.28 Y121.673 E1.2612
G1 X165.996 Y121.705 E.02979
G1 X165.631 Y121.854 E.04109
G1 X165.505 Y121.963 E.01736
M204 S1000
G1 X165.505 Y121.963 F10800
G1 X166.004 Y122.634
M204 S800
;TYPE:External perimeter
G1 F1200
G1 X165.937 Y122.687 E.0089
G1 X165.862 Y122.922 E.02571
G1 X165.673 Y140.47 E1.82901
G1 X165.689 Y141.073 E.06287
G1 X165.677 Y141.7 E.06536
G1 X165.627 Y142.302 E.06296
G1 X165.529 Y142.888 E.06192
G1 X165.369 Y143.465 E.06241
G1 X165.133 Y144.025 E.06334
G1 X164.814 Y144.55 E.06403
G1 X164.421 Y145.016 E.06353
G1 X163.976 Y145.407 E.06174
G1 X163.506 Y145.721 E.05891
G1 X163.026 Y145.973 E.0565
G1 X162.544 Y146.178 E.05459
G1 X161.533 Y146.518 E.11117
G1 X159.209 Y147.163 E.25137
G1 X154.372 Y148.559 E.5247
G1 X149.091 Y149.985 E.57011
G1 X145.469 Y150.893 E.38918
G1 X143.637 Y151.327 E.19622
G1 X139.932 Y152.148 E.39551
G1 X136.196 Y152.888 E.39694
G1 X134.325 Y153.223 E.1981
G1 X132.451 Y153.531 E.19793
G1 X130.58 Y153.811 E.19717
G1 X128.712 Y154.06 E.19641
G1 X126.851 Y154.275 E.19525
G1 X124.998 Y154.456 E.19404
G1 X123.158 Y154.599 E.19235
G1 X118.132 Y154.858 E.52452
G1 X114.98 Y154.921 E.32858
G1 X111.899 Y154.886 E.32113
G1 X108.89 Y154.752 E.31392
G1 X105.949 Y154.519 E.30748
G1 X103.075 Y154.184 E.30156
G1 X100.265 Y153.746 E.2964
G1 X97.518 Y153.204 E.29182
G1 X94.832 Y152.557 E.28795
G1 X92.205 Y151.802 E.28488
G1 X89.636 Y150.939 E.28245
G1 X87.123 Y149.967 E.28082
G1 X84.665 Y148.884 E.27994
G1 X82.26 Y147.69 E.27985
G1 X79.906 Y146.385 E.28052
G1 X77.603 Y144.967 E.28188
G1 X75.347 Y143.436 E.28416
G1 X73.137 Y141.791 E.28714
G1 X70.972 Y140.033 E.29066
G1 X68.81 Y138.125 E.30053
G1 X68.4 Y137.689 E.06238
G1 X68.03 Y137.195 E.06433
G1 X67.719 Y136.66 E.0645
G1 X67.467 Y136.095 E.06448
G1 X67.271 Y135.507 E.0646
G1 X67.122 Y134.898 E.06534
G1 X67.012 Y134.265 E.06696
G1 X66.933 Y133.603 E.06949
G1 X66.843 Y132.159 E.15079
G1 X66.816 Y130.498 E.17314
G1 X66.874 Y123.688 E.70978
G1 X66.911 Y84.436 E4.09096
G1 X66.936 Y80.365 E.4243
G1 X66.978 Y79.724 E.06695
G1 X67.08 Y79.095 E.06641
G1 X67.255 Y78.621 E.05266
G1 X67.541 Y78.141 E.05823
G1 X67.932 Y77.718 E.06004
G1 X68.18 Y77.54 E.03182
G1 X68.66 Y77.261 E.05786
G1 X69.14 Y77.075 E.05365
G1 X69.725 Y76.929 E.06284
G1 X70.654 Y76.816 E.09754
G1 X71.71 Y76.766 E.11018
G1 X72.982 Y76.753 E.13258
G1 X77.435 Y76.791 E.46412
G1 X79.536 Y76.743 E.21903
G1 X81.625 Y76.668 E.21786
G1 X83.69 Y76.567 E.21548
G1 X87.733 Y76.297 E.42231
G1 X91.634 Y75.95 E.40818
G1 X95.42 Y75.538 E.39692
G1 X99.059 Y75.081 E.38225
G1 X102.552 Y74.593 E.36759
G1 X105.902 Y74.089 E.35308
G1 X116.27 Y72.441 E1.09415
G1 X120.472 Y71.738 E.44403
G1 X123.41 Y71.212 E.31108
G1 X126.452 Y70.628 E.32284
G1 X129.594 Y69.978 E.3344
G1 X132.84 Y69.25 E.34671
G1 X136.168 Y68.439 E.357
G1 X139.595 Y67.53 E.36952
G1 X143.093 Y66.52 E.37946
G1 X144.843 Y65.981 E.19085
G1 X146.584 Y65.325 E.19391
G1 X148.271 Y64.658 E.18907
G1 X149.836 Y64.01 E.17654
G1 X151.287 Y63.381 E.16483
G1 X152.65 Y62.762 E.15602
G1 X155.074 Y61.582 E.28098
G1 X157.172 Y60.468 E.24757
G1 X158.128 Y59.928 E.11443
G1 X159.831 Y58.912 E.20668
G1 X161.336 Y57.96 E.1856
G1 X163.979 Y56.234 E.329
G1 X165.395 Y55.353 E.17381
G1 X166.165 Y55.088 E.08487
G1 X167.083 Y55.162 E.09599
G1 X167.781 Y55.452 E.07878
G1 X168.304 Y55.809 E.066
G1 X168.736 Y56.197 E.06052
G1 X169.128 Y56.617 E.05988
G1 X169.507 Y57.076 E.06204
G1 X169.883 Y57.576 E.0652
G1 X170.666 Y58.72 E.14448
G1 X171.948 Y60.772 E.25217
G1 X177.093 Y69.417 E1.0485
G1 X180.625 Y75.226 E.70856
G1 X181.505 Y76.71 E.17982
G1 X182.15 Y77.934 E.1442
G1 X182.479 Y78.702 E.08708
G1 X182.743 Y79.481 E.08573
G1 X183.016 Y80.448 E.10472
G1 X183.178 Y81.123 E.07235
G1 X183.314 Y81.805 E.07248
G1 X183.522 Y83.212 E.14824
G1 X183.656 Y84.66 E.15156
G1 X183.701 Y85.395 E.07675
G1 X183.753 Y86.908 E.15778
G1 X183.767 Y89.261 E.24524
G1 X183.706 Y94.262 E.52126
G1 X183.691 Y98.868 E.48005
G1 X183.706 Y106.712 E.81753
G1 X183.692 Y110.485 E.39324
G1 X183.766 Y115.978 E.57255
G1 X183.77 Y116.945 E.10078
G1 X183.748 Y117.838 E.0931
G1 X183.685 Y118.659 E.08582
G1 X183.555 Y119.444 E.08293
G1 X183.309 Y120.227 E.08554
G1 X182.878 Y120.991 E.09142
G1 X182.24 Y121.638 E.0947
G1 X181.483 Y122.074 E.09105
G1 X180.715 Y122.316 E.08392
G1 X179.965 Y122.438 E.07919
G1 X179.202 Y122.493 E.07973
G1 X178.39 Y122.512 E.08465
G1 X166.28 Y122.508 E1.26214
G1 X166.124 Y122.538 E.01656
G1 X166.098 Y122.56 E.00355
M204 S1000
;WIPE_START
G1 F8640
G1 X166.004 Y122.634 E-.02762
G1 X165.937 Y122.687 E-.01973
G1 X165.862 Y122.922 E-.05696
G1 X165.834 Y125.502 E-.59569
;WIPE_END
G1 Z.55 F720
G1 X166.652 Y56.301 F10800
G1 Z.3 F720
G1 E.7 F1200
M204 S800
;TYPE:Solid infill
;WIDTH:0.90102
G1 X167.963 Y57.634 E.1951
G1 X168.628 Y58.481 E.11237
G1 X169.372 Y59.567 E.13737
G1 X170.433 Y61.265 E.20893
G1 X165.979 Y56.81 E.65737
G1 X165.249 Y57.264 E.08971
G1 X172.195 Y64.21 E1.02505
G1 X173.935 Y67.133 E.35497
G1 X164.525 Y57.723 E1.38867
G1 X163.809 Y58.191 E.08926
G1 X175.674 Y70.055 E1.75089
G1 X177.504 Y73.069 E.36795
G1 X163.094 Y58.658 E2.12661
G1 X162.378 Y59.126 E.08926
G1 X179.337 Y76.085 E2.5027
G1 X180.155 Y77.465 E.1674
M73 P1 R70
G1 X180.816 Y78.747 E.15051
G1 X161.656 Y59.587 E2.82751
G1 X160.931 Y60.045 E.08949
G1 X181.439 Y80.553 E3.02644
G1 X181.519 Y80.836 E.03069
G1 X181.793 Y82.09 E.13394
G1 X160.196 Y60.494 E3.18707
G1 X159.455 Y60.936 E.09003
G1 X181.994 Y83.474 E3.32609
G1 X182.115 Y84.779 E.13676
G1 X158.71 Y61.374 E3.45396
G1 X157.954 Y61.801 E.0906
G1 X182.168 Y86.015 E3.57334
G1 X182.209 Y87.239 E.1278
G1 X157.183 Y62.213 E3.69317
G1 X156.41 Y62.623 E.09131
G1 X182.216 Y88.429 E3.80828
G1 X182.216 Y89.613 E.12355
G1 X155.634 Y63.03 E3.92287
G1 X154.844 Y63.424 E.09212
M73 P2 R70
M73 Q2 S71
G1 X182.202 Y90.782 E4.03732
G1 X182.188 Y91.951 E.12199
M73 Q2 S70
G1 X154.046 Y63.809 E4.15301
G1 X153.244 Y64.19 E.09265
G1 X182.174 Y93.12 E4.2693
G1 X182.16 Y94.289 E.12199
G1 X152.43 Y64.559 E4.38736
G1 X151.612 Y64.925 E.09351
G1 X182.156 Y95.469 E4.50749
G1 X182.153 Y96.648 E.12303
G1 X150.787 Y65.283 E4.62872
G1 X149.955 Y65.634 E.09423
G1 X182.149 Y97.828 E4.75098
G1 X182.146 Y99.008 E.12313
G1 X149.118 Y65.98 E4.87406
G1 X148.274 Y66.319 E.09491
G1 X182.148 Y100.193 E4.9989
G1 X182.15 Y101.379 E.12376
G1 X147.426 Y66.654 E5.12442
G1 X146.57 Y66.981 E.09562
G1 X182.153 Y102.564 E5.25111
G1 X182.155 Y103.749 E.12366
G1 X145.709 Y67.304 E5.37839
G1 X145.281 Y67.465 E.04772
G1 X144.827 Y67.605 E.04958
G1 X182.157 Y104.935 E5.50892
G1 X182.159 Y106.12 E.12366
G1 X143.922 Y67.883 E5.64277
G1 X143.009 Y68.153 E.09935
G1 X182.158 Y107.302 E5.77736
G1 X182.154 Y108.481 E.12303
G1 X142.091 Y68.419 E5.91216
G1 X141.173 Y68.684 E.0997
G1 X182.149 Y109.66 E6.04697
G1 X182.151 Y110.845 E.12366
G1 X140.255 Y68.949 E6.18274
G1 X139.324 Y69.201 E.10065
M73 P3 R69
M73 Q3 S70
G1 X182.167 Y112.044 E6.32249
G1 X182.183 Y113.244 E.12523
G1 X138.389 Y69.449 E6.46291
G1 X137.454 Y69.698 E.10097
G1 X182.2 Y114.443 E6.60325
G1 X182.216 Y115.642 E.12513
G1 X136.518 Y69.945 E6.74374
G1 X135.567 Y70.177 E.10215
G1 X182.223 Y116.833 E6.88519
G1 X182.187 Y117.98 E.11975
G1 X134.616 Y70.409 E7.02022
G1 X133.664 Y70.64 E.10222
M73 Q3 S69
G1 X182.056 Y119.032 E7.14138
G1 X181.883 Y119.609 E.06286
G1 X181.726 Y119.886 E.03323
G1 X132.706 Y70.865 E7.23413
G1 X131.739 Y71.082 E.10342
G1 X181.143 Y120.485 E7.29065
G1 X180.856 Y120.65 E.03455
G1 X180.293 Y120.819 E.06134
G1 X130.773 Y71.298 E7.30791
G1 X129.805 Y71.513 E.10347
G1 X179.232 Y120.941 E7.29419
G1 X178.074 Y120.966 E.12087
G1 X128.824 Y71.716 E7.26799
G1 X127.844 Y71.919 E.10443
G1 X176.89 Y120.965 E7.23789
G1 X175.707 Y120.965 E.12345
M73 P4 R69
M73 Q4 S69
G1 X126.864 Y72.122 E7.20793
G1 X125.872 Y72.314 E.10544
G1 X174.524 Y120.965 E7.17967
G1 X173.34 Y120.965 E.12355
G1 X124.879 Y72.504 E7.15156
G1 X123.887 Y72.695 E.10542
G1 X172.157 Y120.965 E7.12337
G1 X170.974 Y120.965 E.12345
G1 X122.885 Y72.876 E7.09666
G1 X121.882 Y73.056 E.10634
M73 P4 R68
G1 X169.79 Y120.964 E7.06995
