; generated by PrusaSlicer 2.8.0 on 2024-08-13 at 06:13:53 UTC


;
;
; 

; external perimeters extrusion width = 0.90mm
; perimeters extrusion width = 0.90mm
; infill extrusion width = 0.90mm
; solid infill extrusion width = 0.90mm
; top infill extrusion width = 0.80mm
; first layer extrusion width = 0.90mm

M73 P0 R73
M73 Q0 S74
M201 X1000 Y1000 Z200 E5000 ; sets maximum accelerations, mm/sec^2
M203 X200 Y200 Z12 E120 ; sets maximum feedrates, mm / sec
M204 S1250 T1250 ; sets acceleration (S) and retract acceleration (R), mm/sec^2
M205 X8.00 Y8.00 Z0.40 E4.50 ; sets the jerk limits, mm/sec
M205 S0 T0 ; sets the minimum extruding and travel feed rate, mm/sec

; printing object 444.stl id:0 copy 0
; stop printing object 444.stl id:0 copy 0

;TYPE:Custom
M862.3 P "MK3S" ; printer model check
M862.1 P0.8 ; nozzle diameter check
M115 U3.13.3 ; tell printer latest fw version
G90 ; use absolute coordinates
M83 ; extruder relative mode
M104 S220 ; set extruder temp
M140 S100 ; set bed temp
M190 S100 ; wait for bed temp
M109 S220 ; wait for extruder temp
G28 W ; home all without mesh bed level
G80 X82.2668 Y50.6061 W125.929 H108.8 ; mesh bed levelling

G1 Z0.2 F720
G1 Y-3 F1000 ; go outside print area
G92 E0
G1 X60 E9 F1000 ; intro line
G1 X100 E12.5 F1000 ; intro line

G92 E0
M221 S95
G21 ; set units to millimeters
G90 ; use absolute coordinates
M83 ; use relative distances for extrusion
M900 K0.01 ; Filament gcode LA 1.5
; ; Filament gcode LA 1.0

M107
;LAYER_CHANGE
;Z:0.3
;HEIGHT:0.3
G1 E-.7 F2100
G1 Z.55 F720
G1 X95.751 Y57.611 F10800
G1 Z.3 F720
G1 E.7 F1200
M204 S800
;TYPE:Skirt/Brim
;WIDTH:0.9
G1 X95.996 Y57.204 E.04951
G1 X97.316 Y55.231 E.24741
G1 X98.266 Y54.016 E.16074
G1 X99.532 Y52.753 E.18638
G1 X100.503 Y52.054 E.1247
G1 X101.975 Y51.365 E.16939
G1 X103.011 Y51.115 E.11107
G1 X104.166 Y51.023 E.12076
G1 X105.195 Y51.096 E.10752
G1 X202.161 Y73.065 E10.36223
G1 X202.993 Y73.323 E.09079
M73 Q0 S73
G1 X203.964 Y73.759 E.11093
G1 X205.016 Y74.452 E.13129
G1 X205.532 Y74.908 E.07177
G1 X206.436 Y75.992 E.14711
G1 X207.065 Y77.157 E.13799
G1 X207.416 Y78.215 E.11618
G1 X207.639 Y79.747 E.16135
G1 X207.778 Y130.529 E5.29268
G1 X207.647 Y133.934 E.35514
G1 X207.406 Y135.619 E.1774
G1 X207.197 Y136.502 E.09457
G1 X206.784 Y137.722 E.13424
G1 X206.337 Y138.676 E.1098
G1 X205.773 Y139.601 E.11291
G1 X205.109 Y140.452 E.1125
G1 X204.426 Y141.156 E.10223
G1 X202.231 Y143.092 E.30504
G1 X199.939 Y144.957 E.30797
G1 X197.593 Y146.707 E.30504
G1 X195.192 Y148.341 E.30269
G1 X192.736 Y149.857 E.30081
G1 X190.222 Y151.255 E.2998
G1 X187.652 Y152.534 E.29919
G1 X185.025 Y153.695 E.29934
G1 X182.34 Y154.738 E.30021
G1 X179.599 Y155.662 E.30147
G1 X176.8 Y156.47 E.30363
G1 X173.945 Y157.162 E.30617
G1 X171.032 Y157.74 E.30952
G1 X168.061 Y158.205 E.31342
G1 X165.032 Y158.561 E.31786
G1 X161.943 Y158.808 E.32297
G1 X158.68 Y158.953 E.34042
G1 X155.473 Y158.988 E.33426
G1 X152.2 Y158.922 E.34119
G1 X147.057 Y158.655 E.53674
G1 X141.278 Y158.092 E.60516
G1 X137.479 Y157.555 E.39988
G1 X133.605 Y156.892 E.40963
G1 X127.871 Y155.722 E.60993
G1 X122.231 Y154.387 E.60406
G1 X116.802 Y152.961 E.58502
G1 X107.852 Y150.424 E.96955
G1 X106.417 Y149.934 E.15804
G1 X105.095 Y149.307 E.15249
G1 X104.249 Y148.764 E.10477
G1 X103.389 Y148.048 E.11663
G1 X102.467 Y147.011 E.14462
G1 X84.408 Y123.466 E3.09262
G1 X83.636 Y122.165 E.15767
G1 X83.354 Y121.513 E.07404
G1 X83.073 Y120.622 E.09737
G1 X82.819 Y119.296 E.14071
G1 X82.686 Y117.035 E.23606
G1 X82.701 Y86.843 E3.1467
G1 X82.871 Y83.592 E.33929
G1 X83.195 Y81.139 E.25788
G1 X83.869 Y78.362 E.29783
G1 X84.486 Y76.655 E.18917
G1 X85.779 Y74.185 E.29057
G1 X95.689 Y57.714 E2.00342
M204 S1000
;WIPE_START
G1 F8640
G1 X95.751 Y57.611 E-.02776
G1 X95.996 Y57.204 E-.10969
G1 X97.316 Y55.231 E-.54813
G1 X97.354 Y55.182 E-.01442
;WIPE_END
G1 Z.55 F720
; printing object 444.stl id:0 copy 0
G1 X105.115 Y122.05 F10800
G1 Z.3 F720
G1 E.7 F1200
M204 S800
;TYPE:Perimeter
;WIDTH:0.899999
G1 X105.015 Y121.939 E.01557
G1 X104.657 Y121.744 E.04249
G1 X104.244 Y121.673 E.04368
G1 X92.139 Y121.676 E1.26162
G1 X91.36 Y121.658 E.08121
G1 X90.655 Y121.608 E.07366
G1 X90.001 Y121.501 E.06907
G1 X89.378 Y121.304 E.0681
G1 X88.797 Y120.97 E.06985
G1 X88.317 Y120.483 E.07127
G1 X87.984 Y119.893 E.07061
G1 X87.782 Y119.25 E.07024
G1 X87.667 Y118.559 E.07301
G1 X87.609 Y117.796 E.07975
G1 X87.588 Y116.942 E.08903
G1 X87.666 Y110.486 E.67291
G1 X87.66 Y96.149 E1.49425
G1 X87.589 Y88.468 E.80057
G1 X87.625 Y86.174 E.23912
G1 X87.7 Y84.71 E.15278
G1 X87.756 Y84.014 E.07277
G1 X87.921 Y82.629 E.14537
G1 X88.164 Y81.291 E.14173
G1 X88.315 Y80.659 E.06772
G1 X88.578 Y79.728 E.10083
G1 X88.824 Y79.001 E.07999
G1 X89.13 Y78.287 E.08096
G1 X89.516 Y77.532 E.08838
G1 X89.999 Y76.682 E.10189
G1 X94.147 Y69.845 E.83346
G1 X99.288 Y61.207 E1.04766
G1 X100.555 Y59.178 E.24931
G1 X101.272 Y58.132 E.13217
G1 X101.718 Y57.538 E.07742
G1 X102.081 Y57.105 E.05889
G1 X102.631 Y56.56 E.0807
G1 X103.141 Y56.19 E.06567
G1 X103.637 Y55.984 E.05598
G1 X104.25 Y55.935 E.06409
G1 X104.767 Y56.113 E.05699
G1 X106.094 Y56.938 E.16285
G1 X108.729 Y58.66 E.32807
G1 X110.245 Y59.618 E.18691
G1 X111.966 Y60.646 E.20893
G1 X112.929 Y61.19 E.11527
G1 X115.046 Y62.315 E.24986
G1 X116.24 Y62.91 E.13904
G1 X117.534 Y63.526 E.14937
G1 X118.883 Y64.139 E.15443
G1 X120.353 Y64.777 E.16702
G1 X121.95 Y65.438 E.18014
G1 X123.625 Y66.099 E.18768
G1 X125.458 Y66.788 E.20409
G1 X127.201 Y67.324 E.19006
G1 X130.722 Y68.34 E.38194
G1 X134.16 Y69.252 E.37071
G1 X137.507 Y70.068 E.35905
G1 X140.762 Y70.797 E.34765
G1 X143.915 Y71.45 E.33559
G1 X146.968 Y72.035 E.32398
G1 X149.908 Y72.562 E.3113
G1 X154.121 Y73.266 E.44518
G1 X164.496 Y74.916 E1.0949
G1 X167.842 Y75.419 E.35265
G1 X171.348 Y75.908 E.36894
G1 X174.998 Y76.367 E.38341
G1 X178.814 Y76.782 E.40006
G1 X182.715 Y77.129 E.40818
G1 X186.769 Y77.401 E.42347
G1 X188.851 Y77.503 E.21725
G1 X190.956 Y77.578 E.21953
G1 X193.068 Y77.626 E.22018
G1 X197.539 Y77.589 E.466
G1 X198.788 Y77.602 E.13018
G1 X199.798 Y77.649 E.10538
G1 X200.624 Y77.75 E.08673
G1 X201.396 Y77.963 E.08347
G1 X201.851 Y78.216 E.05426
G1 X202.168 Y78.492 E.04381
G1 X202.411 Y78.816 E.04221
G1 X202.626 Y79.298 E.05501
G1 X202.713 Y79.848 E.05804
G1 X202.751 Y80.376 E.05517
G1 X202.775 Y84.439 E.42347
G1 X202.812 Y123.695 E4.09138
G1 X202.868 Y130.645 E.72437
G1 X202.844 Y132.133 E.1551
G1 X202.81 Y132.85 E.07481
G1 X202.758 Y133.52 E.07004
G1 X202.683 Y134.143 E.0654
G1 X202.581 Y134.727 E.06179
G1 X202.447 Y135.275 E.0588
G1 X202.275 Y135.792 E.05679
G1 X202.058 Y136.279 E.05557
G1 X201.794 Y136.733 E.05474
G1 X201.482 Y137.151 E.05436
G1 X201.13 Y137.524 E.05345
G1 X199.01 Y139.395 E.2947
G1 X196.872 Y141.131 E.28703
G1 X194.691 Y142.755 E.2834
G1 X192.466 Y144.265 E.28026
G1 X190.194 Y145.663 E.27803
G1 X187.874 Y146.95 E.27651
G1 X185.503 Y148.127 E.27589
G1 X183.079 Y149.194 E.27603
G1 X180.602 Y150.153 E.27683
G1 X178.068 Y151.004 E.2786
G1 X175.477 Y151.749 E.28098
G1 X172.825 Y152.388 E.28431
G1 X170.112 Y152.923 E.2882
G1 X167.335 Y153.356 E.29292
G1 X164.492 Y153.687 E.29831
G1 X161.581 Y153.918 E.30435
G1 X158.6 Y154.05 E.31099
G1 X155.546 Y154.085 E.31832
G1 X152.42 Y154.023 E.32587
G1 X147.418 Y153.765 E.52202
G1 X145.597 Y153.624 E.19036
G1 X143.76 Y153.444 E.19237
G1 X141.913 Y153.23 E.19379
G1 X140.06 Y152.983 E.19483
G1 X138.201 Y152.705 E.19591
G1 X136.339 Y152.399 E.19667
G1 X134.481 Y152.067 E.19671
G1 X130.762 Y151.33 E.39514
G1 X127.072 Y150.513 E.3939
G1 X125.251 Y150.081 E.19506
G1 X121.641 Y149.176 E.38789
G1 X116.375 Y147.754 E.5685
G1 X111.548 Y146.362 E.52359
M73 Q1 S73
G1 X109.234 Y145.719 E.25031
M73 P1 R73
G1 X108.077 Y145.312 E.12783
G1 X107.607 Y145.087 E.05431
G1 X107.056 Y144.742 E.06776
G1 X106.547 Y144.249 E.07385
G1 X106.258 Y143.846 E.05169
G1 X105.944 Y143.19 E.0758
G1 X105.81 Y142.707 E.05224
G1 X105.712 Y142.038 E.07047
G1 X105.677 Y141.522 E.0539
G1 X105.684 Y140.461 E.11058
G1 X105.504 Y123.739 E1.74292
G1 X105.464 Y122.647 E.11389
G1 X105.299 Y122.252 E.04462
G1 X105.196 Y122.139 E.01594
M204 S1000
G1 X105.196 Y122.139 F10800
G1 X104.53 Y122.647
M204 S800
;TYPE:External perimeter
G1 F1200
G1 X104.475 Y122.579 E.00912
G1 X104.243 Y122.508 E.02529
G1 X92.131 Y122.512 E1.26235
G1 X91.32 Y122.493 E.08455
G1 X90.558 Y122.438 E.07962
G1 X89.807 Y122.316 E.0793
G1 X89.04 Y122.074 E.08382
G1 X88.282 Y121.638 E.09114
G1 X87.644 Y120.991 E.0947
G1 X87.213 Y120.227 E.09142
G1 X86.967 Y119.444 E.08554
G1 X86.837 Y118.659 E.08293
G1 X86.774 Y117.838 E.08582
G1 X86.752 Y116.947 E.09289
G1 X86.83 Y110.486 E.67343
G1 X86.825 Y96.155 E1.49362
G1 X86.753 Y88.465 E.80151
G1 X86.79 Y86.146 E.24172
G1 X86.866 Y84.655 E.1556
G1 X86.925 Y83.931 E.07571
G1 X87.094 Y82.505 E.14966
G1 X87.345 Y81.119 E.1468
G1 X87.506 Y80.448 E.07192
G1 X87.779 Y79.481 E.10472
G1 X88.043 Y78.702 E.08573
G1 X88.374 Y77.932 E.08735
G1 X88.78 Y77.136 E.09313
G1 X89.278 Y76.259 E.10511
G1 X93.427 Y69.42 E.83369
G1 X98.574 Y60.772 E1.04888
G1 X99.856 Y58.721 E.25208
G1 X100.639 Y57.576 E.14457
G1 X101.016 Y57.076 E.06526
G1 X101.394 Y56.617 E.06197
G1 X101.786 Y56.197 E.05988
G1 X102.218 Y55.809 E.06052
G1 X102.741 Y55.452 E.066
G1 X103.439 Y55.162 E.07878
G1 X104.357 Y55.088 E.09599
G1 X105.128 Y55.353 E.08497
G1 X106.543 Y56.234 E.17372
G1 X109.186 Y57.96 E.329
G1 X110.691 Y58.912 E.1856
G1 X112.394 Y59.928 E.20668
G1 X113.35 Y60.468 E.11443
G1 X115.438 Y61.577 E.24641
G1 X116.612 Y62.162 E.13671
G1 X117.879 Y62.765 E.14624
G1 X119.229 Y63.378 E.15453
G1 X120.686 Y64.01 E.16552
G1 X122.254 Y64.659 E.17687
G1 X123.932 Y65.322 E.18804
G1 X125.704 Y65.99 E.19737
G1 X127.429 Y66.52 E.18808
G1 X130.936 Y67.533 E.38045
G1 X134.354 Y68.439 E.36854
G1 X137.69 Y69.252 E.35786
G1 X140.928 Y69.978 E.34585
G1 X144.07 Y70.628 E.3344
G1 X147.112 Y71.212 E.32284
G1 X150.048 Y71.738 E.31087
G1 X154.249 Y72.44 E.44391
G1 X164.617 Y74.089 E1.09417
G1 X167.966 Y74.592 E.35296
G1 X171.463 Y75.081 E.36801
G1 X175.103 Y75.538 E.38235
G1 X178.888 Y75.95 E.39681
G1 X182.789 Y76.297 E.40818
G1 X186.825 Y76.567 E.42158
G1 X188.892 Y76.668 E.21569
G1 X190.986 Y76.743 E.21838
G1 X193.087 Y76.791 E.21903
G1 X197.54 Y76.753 E.46412
M73 P1 R72
G1 X198.812 Y76.766 E.13258
G1 X199.868 Y76.816 E.11018
G1 X200.787 Y76.928 E.09649
G1 X201.691 Y77.178 E.09775
G1 X202.141 Y77.396 E.05211
G1 X202.59 Y77.718 E.05759
G1 X202.981 Y78.141 E.06004
G1 X203.267 Y78.621 E.05823
G1 X203.438 Y79.086 E.05164
G1 X203.539 Y79.717 E.0666
G1 X203.586 Y80.359 E.06709
G1 X203.611 Y84.436 E.42493
G1 X203.648 Y123.685 E4.09065
G1 X203.703 Y130.659 E.72687
G1 X203.679 Y132.159 E.15635
G1 X203.644 Y132.903 E.07763
G1 X203.589 Y133.603 E.07318
G1 X203.51 Y134.265 E.06949
G1 X203.4 Y134.898 E.06696
G1 X203.251 Y135.507 E.06534
G1 X203.055 Y136.095 E.0646
G1 X202.803 Y136.66 E.06448
G1 X202.492 Y137.195 E.0645
G1 X202.123 Y137.689 E.06426
G1 X201.712 Y138.125 E.06245
G1 X199.55 Y140.033 E.30053
G1 X197.385 Y141.791 E.29066
G1 X195.175 Y143.436 E.28714
G1 X192.92 Y144.967 E.28407
G1 X190.616 Y146.385 E.28196
G1 X188.262 Y147.69 E.28052
G1 X185.857 Y148.884 E.27985
G1 X183.399 Y149.967 E.27994
G1 X180.886 Y150.939 E.28082
G1 X178.317 Y151.802 E.28245
G1 X175.69 Y152.557 E.28488
G1 X173.004 Y153.204 E.28795
G1 X170.257 Y153.746 E.29182
G1 X167.447 Y154.184 E.2964
G1 X164.573 Y154.519 E.30156
G1 X161.632 Y154.752 E.30748
G1 X158.623 Y154.886 E.31392
G1 X155.543 Y154.921 E.32103
G1 X152.39 Y154.858 E.32868
G1 X147.364 Y154.599 E.52452
G1 X145.524 Y154.456 E.19235
G1 X143.671 Y154.275 E.19404
G1 X141.81 Y154.06 E.19525
G1 X139.943 Y153.811 E.19631
G1 X138.071 Y153.531 E.19728
G1 X136.198 Y153.223 E.19783
G1 X134.326 Y152.888 E.1982
G1 X130.59 Y152.148 E.39694
G1 X126.886 Y151.327 E.39541
G1 X125.053 Y150.893 E.19632
G1 X121.431 Y149.985 E.38918
G1 X116.15 Y148.559 E.57011
G1 X111.317 Y147.165 E.52424
G1 X108.989 Y146.518 E.25183
G1 X107.978 Y146.178 E.11117
G1 X107.496 Y145.973 E.05459
G1 X107.016 Y145.721 E.0565
G1 X106.546 Y145.407 E.05891
G1 X106.102 Y145.016 E.06166
G1 X105.708 Y144.55 E.0636
G1 X105.389 Y144.025 E.06403
G1 X105.153 Y143.465 E.06334
G1 X104.993 Y142.888 E.06241
G1 X104.895 Y142.302 E.06192
G1 X104.845 Y141.7 E.06296
G1 X104.833 Y141.073 E.06536
G1 X104.849 Y140.47 E.06287
G1 X104.66 Y122.922 E1.82901
G1 X104.63 Y122.771 E.01605
G1 X104.605 Y122.74 E.00415
M204 S1000
;WIPE_START
G1 F8640
G1 X104.53 Y122.647 E-.02759
G1 X104.475 Y122.579 E-.02019
G1 X104.243 Y122.508 E-.05602
G1 X101.661 Y122.509 E-.5962
;WIPE_END
G1 Z.55 F720
G1 X200.831 Y78.154 F10800
G1 Z.3 F720
G1 E.7 F1200
M204 S800
;TYPE:Solid infill
;WIDTH:0.905506
G1 X201.737 Y79.072 E.13531
G1 X201.866 Y79.289 E.02648
G1 X201.935 Y79.477 E.02101
G1 X202.029 Y80.069 E.06288
G1 X202.041 Y80.554 E.0509
G1 X199.859 Y78.372 E.32373
G1 X198.608 Y78.31 E.1314
G1 X202.049 Y81.751 E.51052
G1 X202.056 Y82.948 E.12558
G1 X197.408 Y78.3 E.6896
G1 X196.229 Y78.31 E.12369
G1 X202.063 Y84.144 E.86556
G1 X202.066 Y85.337 E.12516
G1 X195.049 Y78.32 E1.04108
G1 X193.869 Y78.33 E.1238
G1 X202.067 Y86.527 E1.21622
G1 X202.068 Y87.718 E.12495
G1 X192.678 Y78.328 E1.39315
G1 X191.461 Y78.3 E.12771
G1 X202.069 Y88.909 E1.57393
G1 X202.07 Y90.099 E.12484
G1 X190.234 Y78.263 E1.75605
G1 X189 Y78.219 E.12954
M73 Q1 S72
G1 X202.071 Y91.29 E1.93928
G1 X202.072 Y92.48 E.12484
G1 X187.752 Y78.16 E2.12458
G1 X186.497 Y78.094 E.13184
G1 X202.074 Y93.671 E2.31108
G1 X202.075 Y94.862 E.12495
G1 X185.222 Y78.009 E2.50039
G1 X183.947 Y77.924 E.13406
G1 X202.076 Y96.052 E2.68963
G1 X202.077 Y97.243 E.12495
G1 X182.672 Y77.838 E2.87902
G1 X181.366 Y77.722 E.13755
G1 X202.078 Y98.434 E3.07293
G1 X202.079 Y99.624 E.12484
G1 X180.061 Y77.606 E3.2667
G1 X178.755 Y77.49 E.13755
G1 X202.08 Y100.815 E3.46061
G1 X202.081 Y102.006 E.12495
G1 X177.421 Y77.345 E3.65875
G1 X176.086 Y77.2 E.14088
G1 X202.083 Y103.196 E3.85697
G1 X202.084 Y104.387 E.12495
G1 X174.748 Y77.051 E4.0557
G1 X173.387 Y76.88 E.1439
M73 P2 R72
M73 Q2 S72
G1 X202.085 Y105.578 E4.25777
G1 X202.086 Y106.768 E.12484
G1 X172.027 Y76.71 E4.45962
G1 X170.657 Y76.529 E.14498
G1 X202.087 Y107.959 E4.66311
G1 X202.088 Y109.15 E.12495
G1 X169.274 Y76.336 E4.86844
G1 X167.892 Y76.143 E.14639
G1 X202.089 Y110.34 E5.07363
G1 X202.09 Y111.531 E.12495
G1 X166.494 Y75.934 E5.28127
G1 X165.094 Y75.724 E.14852
G1 X202.092 Y112.722 E5.4892
G1 X202.093 Y113.912 E.12484
G1 X163.687 Y75.506 E5.6981
G1 X162.272 Y75.281 E.15031
G1 X202.094 Y115.103 E5.90818
G1 X202.095 Y116.294 E.12495
G1 X160.858 Y75.056 E6.11819
G1 X159.443 Y74.832 E.1503
G1 X202.096 Y117.484 E6.32813
G1 X202.097 Y118.675 E.12495
M73 P2 R71
G1 X158.029 Y74.607 E6.53814
G1 X156.615 Y74.382 E.15021
G1 X202.098 Y119.866 E6.74815
G1 X202.1 Y121.056 E.12484
G1 X155.2 Y74.157 E6.95823
G1 X153.784 Y73.93 E.15045
G1 X202.101 Y122.247 E7.16854
G1 X202.102 Y123.438 E.12495
M73 Q2 S71
G1 X152.355 Y73.691 E7.3807
G1 X150.927 Y73.452 E.15189
M73 P3 R71
M73 Q3 S71
G1 X202.11 Y124.635 E7.59375
G1 X202.12 Y125.835 E.1259
G1 X149.494 Y73.209 E7.80785
G1 X148.045 Y72.95 E.15442
G1 X202.13 Y127.035 E8.02431
G1 X202.141 Y128.235 E.1259
G1 X146.592 Y72.686 E8.24152
G1 X145.12 Y72.404 E.15724
G1 X202.151 Y129.434 E8.46132
G1 X202.158 Y130.631 E.12558
G1 X143.646 Y72.119 E8.68112
G1 X142.147 Y71.809 E.16059
G1 X202.139 Y131.801 E8.9007
G1 X202.09 Y132.942 E.11981
G1 X140.647 Y71.499 E9.11598
G1 X139.114 Y71.156 E.1648
G1 X201.982 Y134.024 E9.3274
G1 X201.886 Y134.581 E.0593
G1 X201.781 Y135.012 E.04654
G1 X137.581 Y70.812 E9.52502
G1 X136.014 Y70.435 E.16908
M73 P3 R70
G1 X201.459 Y135.879 E9.70966
G1 X201.201 Y136.341 E.05551
M73 P4 R70
M73 Q4 S71
G1 X201 Y136.61 E.03523
G1 X134.441 Y70.052 E9.87494
G1 X132.836 Y69.636 E.17394
G1 X200.411 Y137.211 E10.02575
G1 X199.779 Y137.769 E.08845
G1 X131.217 Y69.207 E10.17219
G1 X129.568 Y68.747 E.1796
M73 Q4 S70
G1 X199.147 Y138.326 E10.32307
G1 X198.514 Y138.882 E.08839
G1 X127.896 Y68.264 E10.47722
G1 X126.203 Y67.76 E.18532
G1 X197.858 Y139.416 E10.63115
G1 X197.201 Y139.949 E.08876
G1 X124.403 Y67.15 E10.80073
